X:183
T:When I Parted. Le4.183
Q:3/8=100
T:Caledonian Quadrilles #4. Le4.183
L:1/8
B:L.Leadley MS#4 c1850
Z:vmp.Mike Hicken 2016 www.village-music-project.org.uk
M:6/8
K:Em
"^Allegretto"!ff!F|E2B (BG.E)|D2d (AF.D)|E2B (BG).E|(GF).E e2f|
(gf).e (dc).B|(AF).d (AF).D|E2B BGB|AGF E2 "_fine":|
B|!p!eBe (gb).e|(dA).d (fa).f|(eB).e (gb).g|(eB).e (gb).g|
"^2nd Time Dotted".f.a.f .g.f.e|d^cd AFD|(EF).G (AB).c|(BG).F E2 "_Da Capo":|

